src/pos-icons/file-search.svg

<svg height="24" viewBox="0 0 24 24" width="24" xmlns="http://www.w3.org/2000/svg"><path d="m14 2h-8a2 2 0 0 0 -2 2v16a2 2 0 0 0 2 2h7c-.41-.25-.8-.56-1.14-.9-2.64-2.43-2.81-6.54-.36-9.18 2.19-2.42 5.83-2.79 8.5-.92v-3zm-1 7v-5.5l5.5 5.5zm7.31 9.9c1.33-2.11.69-4.9-1.4-6.22-2.11-1.33-4.91-.68-6.22 1.4-1.34 2.11-.69 4.89 1.4 6.22 1.46.93 3.32.93 4.79.02l3.12 3.07 1.39-1.39zm-3.81.1a2.5 2.5 0 0 1 -2.5-2.5 2.5 2.5 0 0 1 2.5-2.5 2.5 2.5 0 0 1 2.5 2.5 2.5 2.5 0 0 1 -2.5 2.5z"/></svg>

<?xml version="1.0" encoding="UTF-8"?><!DOCTYPE svg PUBLIC "-//W3C//DTD SVG 1.1//EN" "http://www.w3.org/Graphics/SVG/1.1/DTD/svg11.dtd"><svg xmlns="http://www.w3.org/2000/svg" xmlns:xlink="http://www.w3.org/1999/xlink" version="1.1" id="mdi-file-search" width="24" height="24" viewBox="0 0 24 24"><path d="M14,2H6A2,2 0 0,0 4,4V20A2,2 0 0,0 6,22H13C12.59,21.75 12.2,21.44 11.86,21.1C9.22,18.67 9.05,14.56 11.5,11.92C13.69,9.5 17.33,9.13 20,11V8L14,2M13,9V3.5L18.5,9H13M20.31,18.9C21.64,16.79 21,14 18.91,12.68C16.8,11.35 14,12 12.69,14.08C11.35,16.19 12,18.97 14.09,20.3C15.55,21.23 17.41,21.23 18.88,20.32L22,23.39L23.39,22L20.31,18.9M16.5,19A2.5,2.5 0 0,1 14,16.5A2.5,2.5 0 0,1 16.5,14A2.5,2.5 0 0,1 19,16.5A2.5,2.5 0 0,1 16.5,19Z" /></svg>
